T: Thistle Schottische, The
M: 4/4
L: 1/8
K: Gmaj
d2 (3BAG E2 _E2 | D6 (3Bc^c | d2 (3BAG EFG^G | A6 BF |AGB,C D2 (3GFG | AA,BB, cC ^c2 | dedB AGEF | G6 (3Bc^c  |dB (3BAG EG_EG | D4- DA (3Bc^c | dG (3BAG AEFG | Afe^c d2 BF | AGEG DG (3EFG | AA,BB, c2 (3Bc^c | d2- dB AGEF | G2 (3AGF GD ||D4- DB,CB, | E4- EA^GA | BA (3A^GA dA (3AGA | D6 BF | AGB,C DG (3GFG | AA,BB, cC ^c2 | d^cdB AGEF | G4- GB,C^C |D4- DB,CB, | E6 FG | (3ABA ^GA dcGA | B6 BF |  AGEG D2 (3EFG | AA,BB, c2 ^c2 | (3ddd dB AGEF | G2 (3GGF GA ||(3dgd (3BdB GBdB | (3cec (3AcA EecA | (3FAc fe (3ded (3cBA | G2 (3BGE D2 (3Bc^c  |(3dgd (3BdB (3GBG (3DGB | (3cec (3AcA E2 AG | (3FAc fe (3ded (3cBA | G2 B2 c2 ^c2 |(3dgd (3BdB (3GBd (3gdB | (3cec (3AcA (3EAc (3ecA | (3FAc (3fgf (3ded (3cBA | (3GBA (3GFE D2 (3Bc^c |(3dgd B2 (3GB/c/d (3gdB | (3cec A2 (3EA/B/c (3ecA | (3FAc (3fge (3dec (3BcA | (3GB/c/d (3gdB G2 |]d2 (3BAG E2 _E2 | D6 Bc | d2 BG EFG^G | A6 BF |AGB,C D2 FG | AA,BB, cC ^c2 | dedB AGEF | G4- GABc  |dBBG EG_EG | D4- DABc | dGBG AEFG | Afe^c d2 BF | AGEG DGEG | AA,BB, c2 Bc | d2- dB AGEF | G2 G2 GD ||D4- DB,CB, | E4- EA^GA | BA^GA dAGA | D6 BF | AGB,C D2 GG, | AA,BB, cC ^c2 | d^cdB AGEF | G4- GB,C^C |D4- DB,CB, | E6 FG | A2 ^GA dcGA | B6 BF |  AGEG DGEG | AA,BB, c2 ^c2 | d2 dB AGEF | G2 F2 GA ||dgBd GBdG | ceAc EecA | FAfe d2 cA | G2 BE D2 Bc  |d2 Bd G2 DB | c2 Ac E2 AG | FAfe dcBA | G2 B2 c2 ^c2 |dg B2 GdgB | ce A2 (3EAc (3ecA | (3FAc (3fgf (3ded (3cBA | (3GBA (3GFE D2 (3Bc^c |d2 B2 G2 gd | e2 c2 A2 EG | FAfe dcBA | G2 B2 G |]
